src/assets/image/googlePlay.svg

<svg width="179" height="59" viewBox="0 0 179 59" fill="none" xmlns="http://www.w3.org/2000/svg">
<g clip-path="url(#clip0_1440_3576)">
<path d="M178.165 52.5827C178.165 55.8539 175.835 58.3816 173.094 58.3816H5.07086C2.32985 58.3816 0 55.8539 0 52.5827V6.19192C0 3.06946 2.32985 0.393066 5.07086 0.393066H172.957C175.835 0.393066 178.028 3.06946 178.028 6.19192L178.165 52.5827Z" fill="#1F1F1F"/>
<path d="M62.632 15.4104C62.632 16.5999 62.3579 17.492 61.6727 18.2355C60.9874 19.1276 59.891 19.5737 58.7946 19.5737C57.6982 19.5737 56.7389 19.1276 55.9166 18.2355C55.0943 17.3433 54.6831 16.3025 54.6831 14.9643C54.6831 13.6261 55.0943 12.5853 55.9166 11.6932C56.7389 10.801 57.6982 10.355 58.7946 10.355C59.3428 10.355 59.891 10.5037 60.4392 10.6524C60.9874 10.9497 61.3986 11.2471 61.6727 11.5445L60.9874 12.2879C60.4392 11.5445 59.754 11.2471 58.7946 11.2471C57.9723 11.2471 57.2871 11.5445 56.6018 12.1392C56.0536 12.734 55.6425 13.6261 55.6425 14.6669C55.6425 15.7078 55.9166 16.4512 56.6018 17.1947C57.15 17.7894 57.9723 18.0868 58.7946 18.0868C59.6169 18.0868 60.4392 17.7894 60.9874 17.1947C61.3986 16.7486 61.5356 16.1538 61.6727 15.4104H58.7946V14.8156H62.632C62.495 14.9643 62.632 15.2617 62.632 15.4104Z" fill="#FEFEFE" stroke="#FEFEFE" stroke-width="0.2" stroke-miterlimit="10"/>
<path d="M68.6621 11.8421H65.0988V14.5185H68.388V15.5593H65.0988V18.2357H68.6621V19.2765H64.0024V10.8013H68.6621V11.8421Z" fill="#FEFEFE" stroke="#FEFEFE" stroke-width="0.2" stroke-miterlimit="10"/>
<path d="M72.9109 19.4252H71.9516V11.8421H69.7588V10.8013H75.2408V11.8421H73.048V19.4252H72.9109Z" fill="#FEFEFE" stroke="#FEFEFE" stroke-width="0.2" stroke-miterlimit="10"/>
<path d="M79.0781 19.4252V10.8013H80.0375V19.4252H79.0781Z" fill="#FEFEFE" stroke="#FEFEFE" stroke-width="0.2" stroke-miterlimit="10"/>
<path d="M84.6969 19.4252H83.6005V11.8421H81.4077V10.8013H86.8897V11.8421H84.6969V19.4252Z" fill="#FEFEFE" stroke="#FEFEFE" stroke-width="0.2" stroke-miterlimit="10"/>
<path d="M97.1688 18.2355C96.3465 19.1276 95.3871 19.5737 94.2907 19.5737C93.1943 19.5737 92.0979 19.1276 91.4126 18.2355C90.5903 17.3433 90.1792 16.3025 90.1792 15.113C90.1792 13.9235 90.5903 12.734 91.4126 11.9905C92.2349 11.0984 93.1943 10.6523 94.2907 10.6523C95.3871 10.6523 96.3465 11.0984 97.1688 11.9905C97.9911 12.8827 98.4022 13.9235 98.4022 15.113C98.2652 16.3025 97.9911 17.3433 97.1688 18.2355ZM92.0979 17.492C92.6461 18.0868 93.4684 18.3841 94.2907 18.3841C95.113 18.3841 95.7983 18.0868 96.4835 17.492C97.0317 16.8973 97.3058 16.0051 97.3058 14.9643C97.3058 13.9235 97.0317 13.18 96.4835 12.4366C95.9353 11.8419 95.113 11.5445 94.2907 11.5445C93.4684 11.5445 92.7831 11.8419 92.0979 12.4366C91.5497 13.0314 91.2756 13.9235 91.2756 14.9643C91.2756 16.0051 91.5497 16.8973 92.0979 17.492Z" fill="#FEFEFE" stroke="#FEFEFE" stroke-width="0.2" stroke-miterlimit="10"/>
<path d="M99.7725 19.4252V10.8013H101.006L104.843 17.4923V15.8567V10.8013H105.803V19.4252H104.706L100.732 12.2882V13.9237V19.2765H99.7725V19.4252Z" fill="#FEFEFE" stroke="#FEFEFE" stroke-width="0.2" stroke-miterlimit="10"/>
<path d="M89.9049 31.9149C86.7527 31.9149 84.2858 34.4426 84.2858 38.0111C84.2858 41.5796 86.7527 44.1073 89.9049 44.1073C93.057 44.1073 95.5239 41.5796 95.5239 38.0111C95.5239 34.4426 93.057 31.9149 89.9049 31.9149ZM89.9049 41.7283C88.2603 41.7283 86.7527 40.2414 86.7527 38.0111C86.7527 35.7808 88.2603 34.2939 89.9049 34.2939C91.5495 34.2939 93.057 35.7808 93.057 38.0111C93.057 40.0927 91.6865 41.7283 89.9049 41.7283ZM77.5703 31.9149C74.4182 31.9149 71.9513 34.4426 71.9513 38.0111C71.9513 41.5796 74.4182 44.1073 77.5703 44.1073C80.7225 44.1073 83.1894 41.5796 83.1894 38.0111C83.3265 34.4426 80.7225 31.9149 77.5703 31.9149ZM77.5703 41.7283C75.9257 41.7283 74.4182 40.2414 74.4182 38.0111C74.4182 35.7808 75.9257 34.2939 77.5703 34.2939C79.2149 34.2939 80.7225 35.7808 80.7225 38.0111C80.8596 40.0927 79.352 41.7283 77.5703 41.7283ZM63.043 33.6991V36.2268H68.7991C68.6621 37.7137 68.2509 38.7545 67.5657 39.498C66.7434 40.3901 65.3729 41.4309 63.1801 41.4309C59.6168 41.4309 56.8758 38.3085 56.8758 34.5913C56.8758 30.874 59.6168 27.7516 63.1801 27.7516C65.0988 27.7516 66.4693 28.495 67.4286 29.5359L69.0732 27.7516C67.7027 26.2647 65.784 25.0752 63.043 25.0752C58.2463 25.0752 54.1348 29.3872 54.1348 34.5913C54.1348 39.7954 58.1092 44.1073 63.043 44.1073C65.647 44.1073 67.5657 43.2152 69.0732 41.4309C70.5808 39.7954 71.129 37.2677 71.129 35.3347C71.129 34.74 71.129 34.1452 70.9919 33.6991H63.043ZM122.797 35.7808C122.386 34.4426 120.878 31.9149 118 31.9149C115.122 31.9149 112.655 34.4426 112.655 38.0111C112.655 41.4309 114.985 44.1073 118.274 44.1073C120.878 44.1073 122.386 42.4718 122.934 41.4309L121.015 40.0927C120.33 41.1336 119.508 41.7283 118.274 41.7283C117.041 41.7283 116.081 41.1336 115.533 39.9441L123.071 36.5242L122.797 35.7808ZM115.122 37.8624C115.122 35.4834 116.767 34.2939 118 34.2939C118.959 34.2939 119.782 34.8886 120.056 35.6321L115.122 37.8624ZM109.092 43.6613H111.559V25.8186H109.092V43.6613ZM104.98 33.2531C104.295 32.5096 103.336 31.9149 101.965 31.9149C99.2243 31.9149 96.6203 34.5913 96.6203 38.0111C96.6203 41.4309 99.2243 44.1073 101.965 44.1073C103.336 44.1073 104.432 43.5126 104.98 42.7691H105.117V43.5126C105.117 45.8916 104.021 47.0811 102.102 47.0811C100.595 47.0811 99.6354 45.8916 99.2243 44.8508L97.0315 45.8916C97.5797 47.5272 99.2243 49.4601 101.965 49.4601C104.843 49.4601 107.31 47.6759 107.31 43.0665V32.0636H104.98V33.2531ZM102.239 41.7283C100.595 41.7283 99.0872 40.2414 99.0872 38.0111C99.0872 35.9295 100.458 34.2939 102.239 34.2939C103.884 34.2939 105.254 35.9295 105.254 38.0111C105.117 40.0927 103.884 41.7283 102.239 41.7283ZM134.309 25.8186H128.416V43.6613H130.883V36.8216H134.309C137.05 36.8216 139.654 34.74 139.654 31.3201C139.654 27.9003 137.05 25.8186 134.309 25.8186ZM134.446 34.4426H130.883V28.3463H134.446C136.228 28.3463 137.324 29.9819 137.324 31.4688C137.324 32.807 136.228 34.4426 134.446 34.4426ZM149.659 31.9149C147.877 31.9149 146.095 32.807 145.273 34.5913L147.466 35.6321C147.877 34.5913 148.836 34.2939 149.659 34.2939C150.892 34.2939 152.263 35.186 152.263 36.5242V36.6729C151.852 36.3755 150.892 35.9295 149.659 35.9295C147.329 35.9295 144.862 37.2677 144.862 39.9441C144.862 42.3231 146.781 43.81 148.973 43.81C150.618 43.81 151.577 43.0665 152.126 42.0257H152.263V43.3639H154.593V36.5242C154.593 33.6991 152.4 31.9149 149.659 31.9149ZM149.385 41.7283C148.562 41.7283 147.466 41.2822 147.466 40.2414C147.466 38.9032 148.836 38.3085 150.07 38.3085C151.166 38.3085 151.714 38.6059 152.263 38.9032C152.126 40.5388 150.755 41.7283 149.385 41.7283ZM163.364 32.2122L160.486 39.9441H160.349L157.471 32.2122H154.867L159.252 43.0665L156.785 49.1627H159.389L166.105 32.2122H163.364ZM141.162 43.6613H143.629V25.8186H141.162V43.6613Z" fill="#FEFEFE"/>
<path d="M13.7049 11.5449C13.4308 11.991 13.1567 12.7344 13.1567 13.6266V45.2972C13.1567 46.1894 13.4308 46.9328 13.7049 47.3789L13.842 47.5276L30.151 29.8336V29.6849V29.5362L13.7049 11.5449Z" fill="url(#paint0_linear_1440_3576)"/>
<path d="M35.6329 35.4835L30.1509 29.5359V29.3872V29.2386L35.6329 23.291L35.7699 23.4397L42.2113 27.4543C43.9929 28.6438 43.9929 30.4281 42.2113 31.6176L35.6329 35.4835Z" fill="url(#paint1_linear_1440_3576)"/>
<path d="M35.7702 35.4834L30.1511 29.3872L13.7051 47.2298C14.2533 47.9733 15.3497 47.9733 16.4461 47.3785L35.7702 35.4834Z" fill="url(#paint2_linear_1440_3576)"/>
<path d="M35.7702 23.2914L16.4461 11.3963C15.3497 10.8016 14.3903 10.8016 13.7051 11.545L30.1511 29.3876L35.7702 23.2914Z" fill="url(#paint3_linear_1440_3576)"/>
<path opacity="0.2" d="M35.6331 35.335L16.4461 47.0814C15.3497 47.6761 14.3903 47.6761 13.8421 47.0814L13.7051 47.23L13.8421 47.3787C14.3903 47.9735 15.3497 47.9735 16.4461 47.3787L35.6331 35.335Z" fill="#1F1F1F"/>
<path opacity="0.12" d="M13.7049 47.0814C13.2938 46.6353 13.1567 45.8919 13.1567 44.9998V45.1484C13.1567 46.0406 13.4308 46.784 13.7049 47.2301V47.0814Z" fill="#1F1F1F"/>
<path opacity="0.12" d="M42.2112 31.3202L35.6328 35.3347L35.7699 35.4834L42.2112 31.4688C43.1706 30.8741 43.5817 30.1306 43.5817 29.3872C43.5817 30.1306 43.0335 30.7254 42.2112 31.3202Z" fill="#1F1F1F"/>
<path opacity="0.25" d="M16.4459 11.6935L42.2114 27.6031C43.0337 28.0492 43.5819 28.7926 43.5819 29.3874C43.5819 28.644 43.1707 27.9005 42.2114 27.3058L16.4459 11.3961C14.6643 10.2066 13.1567 11.2474 13.1567 13.4777V13.7751C13.1567 11.5448 14.6643 10.504 16.4459 11.6935Z" fill="#FEFEFE"/>
</g>
<defs>
<linearGradient id="paint0_linear_1440_3576" x1="28.7698" y1="13.222" x2="4.8201" y2="35.297" gradientUnits="userSpaceOnUse">
<stop stop-color="#00A0FF"/>
<stop offset="0.00657445" stop-color="#00A1FF"/>
<stop offset="0.2601" stop-color="#00BEFF"/>
<stop offset="0.5122" stop-color="#00D2FF"/>
<stop offset="0.7604" stop-color="#00DFFF"/>
<stop offset="1" stop-color="#00E3FF"/>
</linearGradient>
<linearGradient id="paint1_linear_1440_3576" x1="44.6524" y1="29.3893" x2="12.7186" y2="29.3893" gradientUnits="userSpaceOnUse">
<stop stop-color="#FFE000"/>
<stop offset="0.4087" stop-color="#FFBD00"/>
<stop offset="0.7754" stop-color="#FFA500"/>
<stop offset="1" stop-color="#FF9C00"/>
</linearGradient>
<linearGradient id="paint2_linear_1440_3576" x1="32.7651" y1="32.6749" x2="0.287455" y2="62.6103" gradientUnits="userSpaceOnUse">
<stop stop-color="#FF3A44"/>
<stop offset="1" stop-color="#C31162"/>
</linearGradient>
<linearGradient id="paint3_linear_1440_3576" x1="9.63058" y1="1.00358" x2="24.1332" y2="14.371" gradientUnits="userSpaceOnUse">
<stop stop-color="#32A071"/>
<stop offset="0.0685" stop-color="#2DA771"/>
<stop offset="0.4762" stop-color="#15CF74"/>
<stop offset="0.8009" stop-color="#06E775"/>
<stop offset="1" stop-color="#00F076"/>
</linearGradient>
<clipPath id="clip0_1440_3576">
<rect width="178.165" height="57.9885" fill="white" transform="translate(0 0.393066)"/>
</clipPath>
</defs>
</svg>

<svg xmlns="http://www.w3.org/2000/svg" width="179" height="59" fill="none"><g clip-path="url(#a)"><path fill="#1F1F1F" d="M178.165 52.583c0 3.27-2.33 5.799-5.071 5.799H5.071C2.33 58.382 0 55.854 0 52.582V6.193C0 3.069 2.33.393 5.07.393h167.887c2.878 0 5.071 2.676 5.071 5.799z"/><path fill="#FEFEFE" stroke="#FEFEFE" stroke-miterlimit="10" stroke-width=".2" d="M62.632 15.41c0 1.19-.274 2.082-.96 2.825-.685.893-1.781 1.339-2.877 1.339q-1.645 0-2.878-1.339c-.823-.892-1.234-1.933-1.234-3.27 0-1.339.411-2.38 1.234-3.272q1.233-1.338 2.878-1.338c.548 0 1.096.149 1.644.297q.822.447 1.234.893l-.686.743c-.548-.744-1.233-1.04-2.192-1.04-.823 0-1.508.297-2.193.891a3.75 3.75 0 0 0-.96 2.528c0 1.04.275 1.784.96 2.528.548.594 1.37.892 2.193.892.822 0 1.644-.298 2.192-.892.412-.446.549-1.041.686-1.785h-2.878v-.594h3.837c-.137.148 0 .446 0 .594ZM68.662 11.842H65.1v2.676h3.289v1.041h-3.29v2.677h3.564v1.04h-4.66v-8.475h4.66zM72.91 19.425h-.958v-7.583h-2.193v-1.04h5.482v1.04h-2.193v7.583zM79.078 19.425v-8.624h.96v8.624zM84.697 19.425H83.6v-7.583h-2.192v-1.04h5.482v1.04h-2.193zM97.169 18.236q-1.233 1.338-2.878 1.338c-1.097 0-2.193-.446-2.878-1.339q-1.234-1.338-1.234-3.122c0-1.19.411-2.379 1.234-3.122q1.233-1.34 2.878-1.339 1.644 0 2.878 1.339 1.233 1.338 1.233 3.122c-.137 1.19-.41 2.23-1.233 3.122Zm-5.071-.744c.548.595 1.37.892 2.193.892.822 0 1.507-.297 2.193-.892.548-.595.822-1.487.822-2.528s-.274-1.784-.822-2.527c-.549-.595-1.371-.893-2.193-.893s-1.508.298-2.193.893c-.548.594-.822 1.487-.822 2.527s.274 1.933.822 2.528ZM99.773 19.425v-8.624h1.233l3.837 6.691v-6.691h.96v8.624h-1.097l-3.974-7.137v6.988h-.96z"/><path fill="#FEFEFE" d="M89.905 31.915c-3.152 0-5.62 2.528-5.62 6.096s2.468 6.096 5.62 6.096 5.619-2.527 5.619-6.096-2.467-6.096-5.62-6.096m0 9.813c-1.645 0-3.152-1.487-3.152-3.717s1.507-3.717 3.152-3.717c1.644 0 3.152 1.487 3.152 3.717 0 2.082-1.37 3.717-3.152 3.717M77.57 31.915c-3.152 0-5.619 2.528-5.619 6.096s2.467 6.096 5.62 6.096c3.151 0 5.618-2.527 5.618-6.096.138-3.568-2.466-6.096-5.619-6.096m0 9.813c-1.644 0-3.152-1.487-3.152-3.717s1.508-3.717 3.152-3.717 3.153 1.487 3.153 3.717c.137 2.082-1.371 3.717-3.153 3.717M63.043 33.7v2.528h5.756c-.137 1.487-.548 2.528-1.233 3.271-.823.892-2.193 1.933-4.386 1.933-3.563 0-6.304-3.122-6.304-6.84s2.74-6.84 6.304-6.84c1.919 0 3.29.744 4.249 1.785l1.644-1.784c-1.37-1.487-3.289-2.677-6.03-2.677-4.797 0-8.908 4.312-8.908 9.516s3.974 9.516 8.908 9.516c2.604 0 4.523-.892 6.03-2.676 1.508-1.636 2.056-4.163 2.056-6.096 0-.595 0-1.19-.137-1.636zm59.754 2.082c-.411-1.338-1.919-3.866-4.797-3.866s-5.345 2.528-5.345 6.096c0 3.42 2.33 6.096 5.619 6.096 2.604 0 4.112-1.635 4.66-2.676l-1.919-1.338c-.685 1.04-1.507 1.635-2.741 1.635-1.233 0-2.193-.594-2.741-1.784l7.538-3.42zm-7.675 2.081c0-2.379 1.645-3.568 2.878-3.568.959 0 1.782.595 2.056 1.338zm-6.03 5.8h2.467V25.818h-2.467zm-4.112-10.409c-.685-.743-1.644-1.338-3.015-1.338-2.74 0-5.345 2.676-5.345 6.096s2.604 6.096 5.345 6.096c1.371 0 2.467-.594 3.015-1.338h.137v.744c0 2.379-1.096 3.568-3.015 3.568-1.507 0-2.467-1.19-2.878-2.23l-2.193 1.04c.549 1.636 2.193 3.57 4.934 3.57 2.878 0 5.345-1.785 5.345-6.395V32.064h-2.33zm-2.741 8.475c-1.644 0-3.152-1.487-3.152-3.717 0-2.082 1.371-3.717 3.152-3.717 1.645 0 3.015 1.636 3.015 3.717-.137 2.082-1.37 3.717-3.015 3.717m32.07-15.91h-5.893v17.843h2.467v-6.84h3.426c2.741 0 5.345-2.081 5.345-5.5s-2.604-5.502-5.345-5.502m.137 8.625h-3.563v-6.097h3.563c1.782 0 2.878 1.636 2.878 3.123 0 1.338-1.096 2.974-2.878 2.974m15.213-2.528c-1.782 0-3.564.892-4.386 2.676l2.193 1.041c.411-1.04 1.37-1.338 2.193-1.338 1.233 0 2.604.892 2.604 2.23v.149c-.411-.297-1.371-.744-2.604-.744-2.33 0-4.797 1.339-4.797 4.015 0 2.38 1.919 3.866 4.111 3.866 1.645 0 2.604-.744 3.153-1.784h.137v1.338h2.33v-6.84c0-2.825-2.193-4.61-4.934-4.61m-.274 9.813c-.823 0-1.919-.446-1.919-1.487 0-1.338 1.37-1.932 2.604-1.932 1.096 0 1.644.297 2.193.594-.137 1.636-1.508 2.825-2.878 2.825m13.979-9.516-2.878 7.732h-.137l-2.878-7.732h-2.604l4.385 10.854-2.467 6.097h2.604l6.716-16.95zm-22.202 11.45h2.467V25.818h-2.467z"/><path fill="url(#b)" d="M13.705 11.545c-.274.446-.548 1.19-.548 2.082v31.67c0 .892.274 1.636.548 2.082l.137.149 16.309-17.694v-.298z"/><path fill="url(#c)" d="m35.633 35.484-5.482-5.948v-.297l5.482-5.948.137.149 6.441 4.014c1.782 1.19 1.782 2.974 0 4.164z"/><path fill="url(#d)" d="m35.77 35.483-5.619-6.096L13.705 47.23c.548.743 1.645.743 2.741.149z"/><path fill="url(#e)" d="M35.77 23.291 16.446 11.396c-1.096-.594-2.056-.594-2.74.149L30.15 29.388z"/><path fill="#1F1F1F" d="M35.633 35.335 16.446 47.081c-1.096.595-2.056.595-2.604 0l-.137.149.137.149c.548.595 1.508.595 2.604 0z" opacity=".2"/><path fill="#1F1F1F" d="M13.705 47.081c-.411-.446-.548-1.19-.548-2.081v.148c0 .893.274 1.636.548 2.082zM42.211 31.32l-6.578 4.015.137.148 6.441-4.014c.96-.595 1.37-1.338 1.37-2.082 0 .744-.548 1.338-1.37 1.933" opacity=".12"/><path fill="#FEFEFE" d="m16.446 11.694 25.765 15.91c.823.445 1.37 1.189 1.37 1.783 0-.743-.41-1.486-1.37-2.081l-25.765-15.91c-1.782-1.19-3.29-.149-3.29 2.082v.297c0-2.23 1.508-3.271 3.29-2.081" opacity=".25"/></g><defs><linearGradient id="b" x1="28.77" x2="4.82" y1="13.222" y2="35.297" gradientUnits="userSpaceOnUse"><stop stop-color="#00A0FF"/><stop offset=".007" stop-color="#00A1FF"/><stop offset=".26" stop-color="#00BEFF"/><stop offset=".512" stop-color="#00D2FF"/><stop offset=".76" stop-color="#00DFFF"/><stop offset="1" stop-color="#00E3FF"/></linearGradient><linearGradient id="c" x1="44.652" x2="12.719" y1="29.389" y2="29.389" gradientUnits="userSpaceOnUse"><stop stop-color="#FFE000"/><stop offset=".409" stop-color="#FFBD00"/><stop offset=".775" stop-color="orange"/><stop offset="1" stop-color="#FF9C00"/></linearGradient><linearGradient id="d" x1="32.765" x2=".287" y1="32.675" y2="62.61" gradientUnits="userSpaceOnUse"><stop stop-color="#FF3A44"/><stop offset="1" stop-color="#C31162"/></linearGradient><linearGradient id="e" x1="9.631" x2="24.133" y1="1.004" y2="14.371" gradientUnits="userSpaceOnUse"><stop stop-color="#32A071"/><stop offset=".069" stop-color="#2DA771"/><stop offset=".476" stop-color="#15CF74"/><stop offset=".801" stop-color="#06E775"/><stop offset="1" stop-color="#00F076"/></linearGradient><clipPath id="a"><path fill="#fff" d="M0 .393h178.165v57.99H0z"/></clipPath></defs></svg>
